UI/POI/SVG/fitness_solid_24px.svg

<svg width="24" height="24" viewBox="0 0 24 24" fill="none" xmlns="http://www.w3.org/2000/svg">
<path d="M21.71 11.5699L18.17 15.0999L14.24 11.1699L11.19 14.2199L15.13 18.1499L11.59 21.6899C11.4027 21.8762 11.1492 21.9807 10.885 21.9807C10.6208 21.9807 10.3674 21.8762 10.18 21.6899L8.49003 19.9999L7.79003 20.6999C7.69707 20.7937 7.58646 20.8681 7.46461 20.9188C7.34275 20.9696 7.21204 20.9957 7.08003 20.9957C6.94802 20.9957 6.81731 20.9696 6.69545 20.9188C6.57359 20.8681 6.46299 20.7937 6.37003 20.6999L5.54003 19.8699L4.00003 21.4199L2.58003 19.9999L4.12003 18.4599L3.29003 17.6299C3.1963 17.537 3.12191 17.4264 3.07114 17.3045C3.02037 17.1827 2.99423 17.052 2.99423 16.9199C2.99423 16.7879 3.02037 16.6572 3.07114 16.5354C3.12191 16.4135 3.1963 16.3029 3.29003 16.2099L3.99003 15.5099L2.32003 13.8299C2.13378 13.6426 2.02924 13.3891 2.02924 13.1249C2.02924 12.8608 2.13378 12.6073 2.32003 12.4199L5.85003 8.87994L9.78003 12.8099L12.83 9.75994L8.90003 5.82994L12.43 2.28994C12.523 2.19621 12.6336 2.12182 12.7555 2.07105C12.8773 2.02028 13.008 1.99414 13.14 1.99414C13.272 1.99414 13.4027 2.02028 13.5246 2.07105C13.6465 2.12182 13.7571 2.19621 13.85 2.28994L15.53 3.99994L16.24 3.28994C16.4274 3.10369 16.6808 2.99915 16.945 2.99915C17.2092 2.99915 17.4627 3.10369 17.65 3.28994L18.48 4.11994L20 2.58994L21.41 3.99994L19.9 5.50994L20.74 6.34994C20.8338 6.4429 20.9082 6.5535 20.9589 6.67536C21.0097 6.79722 21.0358 6.92793 21.0358 7.05994C21.0358 7.19195 21.0097 7.32266 20.9589 7.44452C20.9082 7.56637 20.8338 7.67698 20.74 7.76994L20 8.47994L21.68 10.1499C21.7757 10.2409 21.8525 10.3499 21.9059 10.4707C21.9592 10.5915 21.9881 10.7217 21.9909 10.8537C21.9937 10.9857 21.9703 11.117 21.9221 11.2399C21.8739 11.3628 21.8018 11.475 21.71 11.5699Z" fill="#0F1621"/>
</svg>

<svg xmlns="http://www.w3.org/2000/svg" width="24" height="24" viewBox="0 0 24 24"><rect width="24" height="24" style="fill:none"/><path d="M21.71,11.57,18.17,15.1l-3.93-3.93-3.05,3.05,3.94,3.93-3.54,3.54a1,1,0,0,1-1.41,0L8.49,20l-.7.7a1,1,0,0,1-1.42,0l-.83-.83L4,21.42,2.58,20l1.54-1.54-.83-.83a1,1,0,0,1,0-1.42l.7-.7L2.32,13.83a1,1,0,0,1,0-1.41L5.85,8.88l3.93,3.93,3.05-3.05L8.9,5.83l3.53-3.54a1,1,0,0,1,1.42,0L15.53,4l.71-.71a1,1,0,0,1,1.41,0l.83.83L20,2.59,21.41,4,19.9,5.51l.84.84a1,1,0,0,1,0,1.42L20,8.48l1.68,1.67A1,1,0,0,1,21.71,11.57Z"/></svg>
